src/icons/bigCart.svg

<svg height="266" viewBox="0 0 409 266" width="409" xmlns="http://www.w3.org/2000/svg"><path d="m134.574 176.682 162.839-23.062a8.725 8.725 0 0 0 7.471-8.553v-66.153a5.361 5.361 0 0 0 -5.414-5.414h-195.97z" fill="#e5e5e5" transform="translate(5.737 27.923)"/><g fill="none"><path d="m134.574 176.682 162.839-23.062a8.725 8.725 0 0 0 7.471-8.553v-66.153a5.361 5.361 0 0 0 -5.414-5.414h-195.97z" transform="translate(-.024 18.707)"/><path d="m43.5 29.5h36.812l12.235 40.493 37.57 124.078" stroke="#b3b3b3" stroke-linecap="round" stroke-linejoin="round" stroke-miterlimit="10" stroke-width="5" transform="translate(11.143 20.828)"/><path d="m89 67h195.97a5.361 5.361 0 0 1 5.414 5.414v66.153a8.55 8.55 0 0 1 -7.471 8.553l-162.839 23.062" stroke="#b3b3b3" stroke-linecap="round" stroke-linejoin="round" stroke-miterlimit="10" stroke-width="5" transform="translate(14.906 23.93)"/><path d="m161.29 121.245 23.82 40.06" stroke="#b3b3b3" stroke-linecap="round" stroke-linejoin="round" stroke-miterlimit="10" stroke-width="5"/><path d="m197.019 121.245 23.82 40.06" stroke="#b3b3b3" stroke-linecap="round" stroke-linejoin="round" stroke-miterlimit="10" stroke-width="5"/><path d="m232.748 121.245 23.82 40.06" stroke="#b3b3b3" stroke-linecap="round" stroke-linejoin="round" stroke-miterlimit="10" stroke-width="5"/><ellipse cx="158.041" cy="228.433" rx="21.654" ry="21.654" stroke="#b3b3b3" stroke-linecap="round" stroke-linejoin="round" stroke-miterlimit="10" stroke-width="5"/><ellipse cx="280.387" cy="228.433" rx="21.654" ry="21.654" stroke="#b3b3b3" stroke-linecap="round" stroke-linejoin="round" stroke-miterlimit="10" stroke-width="5"/><path d="m179.696 228.433h79.038" stroke="#b3b3b3" stroke-linecap="round" stroke-linejoin="round" stroke-miterlimit="10" stroke-width="5"/><path d="m0 0a19.546 19.546 0 0 1 19.489 19.489" stroke="#b3b3b3" stroke-linecap="round" stroke-linejoin="round" stroke-miterlimit="10" stroke-width="5" transform="matrix(.98768834 -.15643447 .15643447 .98768834 312.29 198.679)"/><path d="m264.1 172.994a16.883 16.883 0 0 1 18.523 14.969" stroke="#b3b3b3" stroke-linecap="round" stroke-linejoin="round" stroke-miterlimit="10" stroke-width="5" transform="translate(34.283 32.154)"/><ellipse cx="395.673" cy="195.129" rx="10.827" ry="10.827" stroke="#f1f1f1" stroke-linecap="round" stroke-linejoin="round" stroke-miterlimit="10" stroke-width="5"/><path d="m359.971 94.305h19.489" stroke="#e5e5e5" stroke-linecap="round" stroke-linejoin="round" stroke-miterlimit="10" stroke-width="5"/><path d="m369.715 84.561v19.489" stroke="#e5e5e5" stroke-linecap="round" stroke-linejoin="round" stroke-miterlimit="10" stroke-width="5"/><path d="m14.326 263.5h75.789" stroke="#b3b3b3" stroke-linecap="round" stroke-linejoin="round" stroke-miterlimit="10" stroke-width="5"/><path d="m103.404 263.5h158.075" stroke="#b3b3b3" stroke-linecap="round" stroke-linejoin="round" stroke-miterlimit="10" stroke-width="5"/><path d="m276.901 263.5h28.15" stroke="#b3b3b3" stroke-linecap="round" stroke-linejoin="round" stroke-miterlimit="10" stroke-width="5"/><path d="m313.767 263.5h12.992" stroke="#b3b3b3" stroke-linecap="round" stroke-linejoin="round" stroke-miterlimit="10" stroke-width="5"/><path d="m334.5 263.5h71.459" stroke="#b3b3b3" stroke-linecap="round" stroke-linejoin="round" stroke-miterlimit="10" stroke-width="5"/><path d="m54.97 195.572h19.489" stroke="#e5e5e5" stroke-linecap="round" stroke-linejoin="round" stroke-miterlimit="10" stroke-width="5"/><path d="m64.714 185.828v19.489" stroke="#e5e5e5" stroke-linecap="round" stroke-linejoin="round" stroke-miterlimit="10" stroke-width="5"/><ellipse cx="13.327" cy="95.594" rx="10.827" ry="10.827" stroke="#e5e5e5" stroke-linecap="round" stroke-linejoin="round" stroke-miterlimit="10" stroke-width="5"/><ellipse cx="295.781" cy="22.112" rx="10.827" ry="10.827" stroke="#e5e5e5" stroke-linecap="round" stroke-linejoin="round" stroke-miterlimit="10" stroke-width="5"/><path d="m148.078 12.245h19.489" stroke="#e5e5e5" stroke-linecap="round" stroke-linejoin="round" stroke-miterlimit="10" stroke-width="5"/><path d="m157.822 2.5v19.489" stroke="#e5e5e5" stroke-linecap="round" stroke-linejoin="round" stroke-miterlimit="10" stroke-width="5"/></g></svg>

<svg xmlns="http://www.w3.org/2000/svg" width="409" height="266" viewBox="0 0 409 266">
  <g id="组_3484" data-name="组 3484" transform="translate(2.5 2.5)">
    <g id="组_153" data-name="组 153" transform="translate(52.143 47.828)">
      <path id="路径_187" data-name="路径 187" d="M134.574,176.682,297.413,153.62a8.725,8.725,0,0,0,7.471-8.553V78.914A5.361,5.361,0,0,0,299.47,73.5H103.5Z" transform="translate(-48.906 -22.405)" fill="#e5e5e5"/>
      <path id="路径_9" data-name="路径 9" d="M134.574,176.682,297.413,153.62a8.725,8.725,0,0,0,7.471-8.553V78.914A5.361,5.361,0,0,0,299.47,73.5H103.5Z" transform="translate(-54.667 -31.621)" fill="none"/>
      <path id="路径_10" data-name="路径 10" d="M43.5,29.5H80.312L92.547,69.993l37.57,124.078" transform="translate(-43.5 -29.5)" fill="none" stroke="#b3b3b3" stroke-linecap="round" stroke-linejoin="round" stroke-miterlimit="10" stroke-width="5"/>
      <path id="路径_11" data-name="路径 11" d="M272,68" transform="translate(-24.602 -26.316)" fill="none" stroke="#b3b3b3" stroke-miterlimit="10" stroke-width="5"/>
      <path id="路径_12" data-name="路径 12" d="M89,67H284.97a5.361,5.361,0,0,1,5.414,5.414v66.153a8.55,8.55,0,0,1-7.471,8.553L120.074,170.182" transform="translate(-39.737 -26.398)" fill="none" stroke="#b3b3b3" stroke-linecap="round" stroke-linejoin="round" stroke-miterlimit="10" stroke-width="5"/>
      <line id="直线_35" data-name="直线 35" x2="23.82" y2="40.06" transform="translate(106.647 70.917)" fill="none" stroke="#b3b3b3" stroke-linecap="round" stroke-linejoin="round" stroke-miterlimit="10" stroke-width="5"/>
      <line id="直线_36" data-name="直线 36" x2="23.82" y2="40.06" transform="translate(142.376 70.917)" fill="none" stroke="#b3b3b3" stroke-linecap="round" stroke-linejoin="round" stroke-miterlimit="10" stroke-width="5"/>
      <line id="直线_37" data-name="直线 37" x2="23.82" y2="40.06" transform="translate(178.105 70.917)" fill="none" stroke="#b3b3b3" stroke-linecap="round" stroke-linejoin="round" stroke-miterlimit="10" stroke-width="5"/>
      <ellipse id="椭圆_8" data-name="椭圆 8" cx="21.654" cy="21.654" rx="21.654" ry="21.654" transform="translate(81.744 156.451)" fill="none" stroke="#b3b3b3" stroke-linecap="round" stroke-linejoin="round" stroke-miterlimit="10" stroke-width="5"/>
      <ellipse id="椭圆_9" data-name="椭圆 9" cx="21.654" cy="21.654" rx="21.654" ry="21.654" transform="translate(204.09 156.451)" fill="none" stroke="#b3b3b3" stroke-linecap="round" stroke-linejoin="round" stroke-miterlimit="10" stroke-width="5"/>
      <line id="直线_38" data-name="直线 38" x2="79.038" transform="translate(125.053 178.105)" fill="none" stroke="#b3b3b3" stroke-linecap="round" stroke-linejoin="round" stroke-miterlimit="10" stroke-width="5"/>
      <path id="路径_13" data-name="路径 13" d="M0,0A19.546,19.546,0,0,1,19.489,19.489" transform="translate(257.647 148.351) rotate(-9)" fill="none" stroke="#b3b3b3" stroke-linecap="round" stroke-linejoin="round" stroke-miterlimit="10" stroke-width="5"/>
      <path id="路径_14" data-name="路径 14" d="M264.1,172.994a16.883,16.883,0,0,1,18.523,14.969" transform="translate(-20.36 -18.174)" fill="none" stroke="#b3b3b3" stroke-linecap="round" stroke-linejoin="round" stroke-miterlimit="10" stroke-width="5"/>
    </g>
    <ellipse id="椭圆_10" data-name="椭圆 10" cx="10.827" cy="10.827" rx="10.827" ry="10.827" transform="translate(382.346 181.802)" fill="none" stroke="#f1f1f1" stroke-linecap="round" stroke-linejoin="round" stroke-miterlimit="10" stroke-width="5"/>
    <g id="组_155" data-name="组 155" transform="translate(357.471 82.061)">
      <line id="直线_39" data-name="直线 39" x2="19.489" transform="translate(0 9.744)" fill="none" stroke="#e5e5e5" stroke-linecap="round" stroke-linejoin="round" stroke-miterlimit="10" stroke-width="5"/>
      <line id="直线_40" data-name="直线 40" y2="19.489" transform="translate(9.744 0)" fill="none" stroke="#e5e5e5" stroke-linecap="round" stroke-linejoin="round" stroke-miterlimit="10" stroke-width="5"/>
    </g>
    <g id="组_152" data-name="组 152" transform="translate(11.826 261)">
      <line id="直线_41" data-name="直线 41" x2="75.789" stroke-width="5" stroke="#b3b3b3" stroke-linecap="round" stroke-linejoin="round" stroke-miterlimit="10" fill="none"/>
      <line id="直线_42" data-name="直线 42" x2="158.075" transform="translate(89.078)" fill="none" stroke="#b3b3b3" stroke-linecap="round" stroke-linejoin="round" stroke-miterlimit="10" stroke-width="5"/>
      <line id="直线_43" data-name="直线 43" x2="28.15" transform="translate(262.575)" fill="none" stroke="#b3b3b3" stroke-linecap="round" stroke-linejoin="round" stroke-miterlimit="10" stroke-width="5"/>
      <line id="直线_44" data-name="直线 44" x2="12.992" transform="translate(299.441)" fill="none" stroke="#b3b3b3" stroke-linecap="round" stroke-linejoin="round" stroke-miterlimit="10" stroke-width="5"/>
      <line id="直线_45" data-name="直线 45" x2="71.459" transform="translate(320.174)" fill="none" stroke="#b3b3b3" stroke-linecap="round" stroke-linejoin="round" stroke-miterlimit="10" stroke-width="5"/>
    </g>
    <g id="组_156" data-name="组 156" transform="translate(52.47 183.328)">
      <line id="直线_46" data-name="直线 46" x2="19.489" transform="translate(0 9.744)" fill="none" stroke="#e5e5e5" stroke-linecap="round" stroke-linejoin="round" stroke-miterlimit="10" stroke-width="5"/>
      <line id="直线_47" data-name="直线 47" y2="19.489" transform="translate(9.744)" fill="none" stroke="#e5e5e5" stroke-linecap="round" stroke-linejoin="round" stroke-miterlimit="10" stroke-width="5"/>
    </g>
    <ellipse id="椭圆_11" data-name="椭圆 11" cx="10.827" cy="10.827" rx="10.827" ry="10.827" transform="translate(0 82.267)" fill="none" stroke="#e5e5e5" stroke-linecap="round" stroke-linejoin="round" stroke-miterlimit="10" stroke-width="5"/>
    <ellipse id="椭圆_12" data-name="椭圆 12" cx="10.827" cy="10.827" rx="10.827" ry="10.827" transform="translate(282.454 8.785)" fill="none" stroke="#e5e5e5" stroke-linecap="round" stroke-linejoin="round" stroke-miterlimit="10" stroke-width="5"/>
    <g id="组_154" data-name="组 154" transform="translate(145.578)">
      <line id="直线_48" data-name="直线 48" x2="19.489" transform="translate(0 9.745)" fill="none" stroke="#e5e5e5" stroke-linecap="round" stroke-linejoin="round" stroke-miterlimit="10" stroke-width="5"/>
      <line id="直线_49" data-name="直线 49" y2="19.489" transform="translate(9.744)" fill="none" stroke="#e5e5e5" stroke-linecap="round" stroke-linejoin="round" stroke-miterlimit="10" stroke-width="5"/>
    </g>
  </g>
</svg>
